X: 16
T: Missa Ave Maria / Credo
N: Derived from Rue1004c-Missa_Ave_Maria-Credo.krn
C: Pierre de la Rue
%%abc-version 2.0
%%abcx-abcm2ps-target-version 5.9.1 (29 Sep 2008)
%%abc-creator hum2abc beta
%%abcx-conversion-date 2019/02/17 08:01:09
%%abc-edited-by Jesse Rodin
%%abc-edited-by Chris Gage 12-04-2012
%%abcx-initial-encoding-date 2013/05/24/
%%humdrum-veritas 4058324165
%%humdrum-veritas-data 2394400919
%%linebreak <none>
%%barnumbers 0
L: 1/4
M: 4/2
Q: 1/2=120
V: 1 clef=treble
V: 2 clef=treble-8
V: 3 clef=treble-8
V: 4 clef=treble-8
V: 5 clef=bass
K: C
[V:1] z8 | 
[V:2] c8 | 
[V:3] z8 | 
[V:4] z8 | 
[V:5] z8 | 
[V:1] z8 | 
[V:2] G3AA4 | 
[V:3] z8 | 
[V:4] z8 | 
[V:5] z8 | 
[V:1] c8 | 
[V:2] z2A2c3d | 
[V:3] z8 | 
[V:4] z8 | 
[V:5] z8 | 
[V:1] G3AA4 | 
[V:2] e2e2f4- | 
[V:3] z8 | 
[V:4] z8 | 
[V:5] z8 | 
[V:1] z2A2c3d | 
[V:2] f4f4 | 
[V:3] z8 | 
[V:4] z8 | 
[V:5] z8 | 
[V:1] e4f4- | 
[V:2] e2a3dd2- | 
[V:3] z8 | 
[V:4] z8 | 
[V:5] z8 | 
[V:1] f2e2e4 | 
[V:2] d2a4g2- | 
[V:3] z8 | 
[V:4] z8 | 
[V:5] z8 | 
[V:1] z2e2d2d2 | 
[V:2] g2e2f2g2 | 
[V:3] z8 | 
[V:4] z8 | 
[V:5] z8 | 
[V:1] e3dB2e2- | 
[V:2] c4z4 | 
[V:3] z8 | 
[V:4] z8 | 
[V:5] z8 | 
[V:1] e2d4B2 | 
[V:2] g3gf2g2 | 
[V:3] z8 | 
[V:4] z8 | 
[V:5] z8 | 
[V:1] c2d2G4 | 
[V:2] e2f2g2fe | 
[V:3] z8 | 
[V:4] z8 | 
[V:5] z8 | 
[V:1] z4d3d | 
[V:2] d4z2d2 | 
[V:3] z8 | 
[V:4] z8 | 
[V:5] z8 | 
[V:1] c2d2B2c2 | 
[V:2] e2f2g2fe | 
[V:3] z8 | 
[V:4] z8 | 
[V:5] z8 | 
[V:1] d3cA3B | 
[V:2] d3efga2- | 
[V:3] z8 | 
[V:4] z8 | 
[V:5] z8 | 
[V:1] cde2d2c2- | 
[V:2] a2g2f3e | 
[V:3] z8 | 
[V:4] z8 | 
[V:5] z8 | 
[V:1] cAc2B2A2- | 
[V:2] cde4f2- | 
[V:3] z8 | 
[V:4] z8 | 
[V:5] z8 | 
[V:1] AEG2F4 | 
[V:2] f2e4d2 | 
[V:3] z8 | 
[V:4] z8 | 
[V:5] z8 | 
[V:1] E8 | 
[V:2] e8 | 
[V:3] z8 | 
[V:4] c4c4 | 
[V:5] z8 | 
[V:1] z8 | 
[V:2] z8 | 
[V:3] z8 | 
[V:4] G3AA4 | 
[V:5] z8 | 
[V:1] z8 | 
[V:2] z8 | 
[V:3] z8 | 
[V:4] z2A2c3d | 
[V:5] F,4F,4 | 
[V:1] z8 | 
[V:2] z8 | 
[V:3] z8 | 
[V:4] e4f4- | 
[V:5] C,3D,D,4 | 
[V:1] z8 | 
[V:2] z8 | 
[V:3] z8 | 
[V:4] f2f2f4 | 
[V:5] D,2F,3G,A,2- | 
[V:1] z8 | 
[V:2] z8 | 
[V:3] z8 | 
[V:4] e4z2e2 | 
[V:5] A,B,C3B,A,G, | 
[V:1] z8 | 
[V:2] z8 | 
[V:3] z8 | 
[V:4] d2c2d4 | 
[V:5] F,2E,2F,4 | 
[V:1] z8 | 
[V:2] z8 | 
[V:3] z8 | 
[V:4] e4z2e2 | 
[V:5] E,2A,2G,2E,2 | 
[V:1] z8 | 
[V:2] z8 | 
[V:3] z8 | 
[V:4] d2B2d4 | 
[V:5] G,4D,2F,2- | 
[V:1] z8 | 
[V:2] z8 | 
[V:3] z8 | 
[V:4] A2c3Be2 | 
[V:5] F,E,A,3G,E,F, | 
[V:1] z8 | 
[V:2] z8 | 
[V:3] z8 | 
[V:4] dcBAB4 | 
[V:5] G,2A,4^G,2 | 
[V:1] z8 | 
[V:2] a4a2a2 | 
[V:3] c8- | 
[V:4] A8 | 
[V:5] A,8 | 
[V:1] e4e2e2 | 
[V:2] g2g2e2e2 | 
[V:3] c8 | 
[V:4] z8 | 
[V:5] z8 | 
[V:1] d2d2B4- | 
[V:2] g4g2g2- | 
[V:3] G8- | 
[V:4] z4z2B2 | 
[V:5] z8 | 
[V:1] B4z2B2 | 
[V:2] g2fed4 | 
[V:3] G8 | 
[V:4] d2e2B2d2- | 
[V:5] z2E,2G,2G,2 | 
[V:1] d2d2d2A2- | 
[V:2] d4f4- | 
[V:3] A8 | 
[V:4] d2d2A2d2- | 
[V:5] D,2D,4D,2- | 
[V:1] A2A4c2- | 
[V:2] f2edc4- | 
[V:3] A8 | 
[V:4] dcA3GAB | 
[V:5] D,2F,4E,D, | 
[V:1] c2BAG4- | 
[V:2] c4z4 | 
[V:3] e8- | 
[V:4] c6BA | 
[V:5] C,8 | 
[V:1] G4c4 | 
[V:2] z4a4 | 
[V:3] e8 | 
[V:4] B4A4 | 
[V:5] E,4z4 | 
[V:1] c2c2d4 | 
[V:2] a2a2a4 | 
[V:3] f8 | 
[V:4] z8 | 
[V:5] z8 | 
[V:1] e4z2e2 | 
[V:2] g4z2e2 | 
[V:3] e8 | 
[V:4] z2B2c2c2 | 
[V:5] E,4A,2A,2 | 
[V:1] f2f2g3f | 
[V:2] a2a2g4- | 
[V:3] z8 | 
[V:4] d4e4- | 
[V:5] F,4E,4- | 
[V:1] edc3BG2 | 
[V:2] g2e2f2g2 | 
[V:3] z8 | 
[V:4] e4z2e2 | 
[V:5] E,4z2E,2 | 
[V:1] z8 | 
[V:2] c4z4 | 
[V:3] z8 | 
[V:4] f2f2g3f | 
[V:5] A,2A,2G,4 | 
[V:1] z4z2E2 | 
[V:2] z2e2g3f | 
[V:3] e8- | 
[V:4] edc3BG2 | 
[V:5] A,4E,4- | 
[V:1] G3AB2c2 | 
[V:2] edc2B2e2 | 
[V:3] e8 | 
[V:4] z2E2G2A2 | 
[V:5] E,4E,4 | 
[V:1] d2d2e4 | 
[V:2] z4e4 | 
[V:3] d4c4 | 
[V:4] B4A4 | 
[V:5] z8 | 
[V:1] f8 | 
[V:2] a8 | 
[V:3] d8 | 
[V:4] A2A4A2 | 
[V:5] F,8 | 
[V:1] g3fedc2 | 
[V:2] g2g3fed | 
[V:3] e8- | 
[V:4] B3GG4 | 
[V:5] E,8 | 
[V:1] B2A4^G2 | 
[V:2] e2c2B4 | 
[V:3] e8 | 
[V:4] z4B2B2 | 
[V:5] G,2A,2E,4 | 
[V:1] A8 | 
[V:2] A8 | 
[V:3] z8 | 
[V:4] c4c2d2- | 
[V:5] z4z2D,2 | 
[V:1] z8 | 
[V:2] z8 | 
[V:3] z8 | 
[V:4] dBB4e2- | 
[V:5] D,2G,4G,2 | 
[V:1] z4B2B2 | 
[V:2] z8 | 
[V:3] z8 | 
[V:4] e2e2d2B2 | 
[V:5] E,4G,4 | 
[V:1] c4c2d2- | 
[V:2] z8 | 
[V:3] z8 | 
[V:4] e6d2 | 
[V:5] z2C4B,2 | 
[V:1] d2B4e2- | 
[V:2] z8 | 
[V:3] z8 | 
[V:4] B2d4B2 | 
[V:5] G,8 | 
[V:1] e2e2dBd2 | 
[V:2] e2e2gfed | 
[V:3] z8 | 
[V:4] c4B4 | 
[V:5] A,4B,2G,B, | 
[V:1] c2B4A2 | 
[V:2] edcBc4 | 
[V:3] e8- | 
[V:4] z8 | 
[V:5] A,2G,2A,4 | 
[V:1] B4z2B2 | 
[V:2] B4z2B2 | 
[V:3] e8 | 
[V:4] z2G2B4- | 
[V:5] z2E,2G,4- | 
[V:1] d2d2e4 | 
[V:2] G2g4e2 | 
[V:3] d4c4 | 
[V:4] B2B2G4 | 
[V:5] G,4E,2E,2 | 
[V:1] A2d3cAB | 
[V:2] f2d2f3g | 
[V:3] d8 | 
[V:4] A8 | 
[V:5] D,8 | 
[V:1] cde3dB2 | 
[V:2] a2a4g2 | 
[V:3] c2A2B4 | 
[V:4] A2A2E4 | 
[V:5] z8 | 
[V:1] c8 | 
[V:2] a4z2f2- | 
[V:3] A8 | 
[V:4] z2c2c2A2- | 
[V:5] F,4F,2F,2- | 
[V:1] z8 | 
[V:2] f2f2g2g2 | 
[V:3] z8 | 
[V:4] A2A2G3F | 
[V:5] F,2F,2E,3D, | 
[V:1] c4c2c2- | 
[V:2] g3fe4 | 
[V:3] z8 | 
[V:4] E4z2E2 | 
[V:5] C,4z2C,2 | 
[V:1] c2c2B3A | 
[V:2] z2a2g2g2 | 
[V:3] z8 | 
[V:4] G2A2B2E2 | 
[V:5] E,2F,2G,4 | 
[V:1] G2G2B2c2 | 
[V:2] g2e2g4 | 
[V:3] e6e2 | 
[V:4] B2c2B2e2 | 
[V:5] E,8 | 
[V:1] d2e4d2- | 
[V:2] a8 | 
[V:3] d2c2d4 | 
[V:4] z2e2f3d | 
[V:5] z8 | 
[V:1] d2c2d2c2 | 
[V:2] a4z2g2 | 
[V:3] A4z2e2 | 
[V:4] e4d2G2 | 
[V:5] z4z2E,2 | 
[V:1] d2e2f4 | 
[V:2] f2g2fda2- | 
[V:3] d2c2d4- | 
[V:4] A2G2A4 | 
[V:5] F,2E,2D,4 | 
[V:1] g6f2 | 
[V:2] a2g2g3a | 
[V:3] d4d4- | 
[V:4] B6A2 | 
[V:5] G,6D,2 | 
[V:1] f3edcd2- | 
[V:2] a8 | 
[V:3] d4A4- | 
[V:4] A8 | 
[V:5] D,8- | 
[V:1] d2cBA4 | 
[V:2] f4f4- | 
[V:3] A4A4- | 
[V:4] d8- | 
[V:5] D,8- | 
[V:1] A4d4 ||  
[V:2] f8 ||  
[V:3] A8 ||  
[V:4] d8 ||  
[V:5] D,8 ||  
[V:1]  [K:C] [K:clef=treble][M:2/1]z8 | 
[V:2]  [K:C] [K:clef=treble-8][M:2/1]f4f2f2 | 
[V:3]  [K:C] [K:clef=treble-8][M:2/1]z8 | 
[V:4]  [K:C] [K:clef=treble-8][M:2/1]d4d2d2 | 
[V:5]  [K:C] [K:clef=bass][M:2/1]z8 | 
[V:1] d4d2d2 | 
[V:2] g2g2a4 | 
[V:3] d8 | 
[V:4] B2B2A4 | 
[V:5] z4D,4 | 
[V:1] B2B2A4- | 
[V:2] z4z2f2 | 
[V:3] d4d4- | 
[V:4] z8 | 
[V:5] G,2G,2F,4 | 
[V:1] A4z2A2 | 
[V:2] f2f2e2A2 | 
[V:3] d4e4- | 
[V:4] z2A2c3d | 
[V:5] D,4A,4- | 
[V:1] c3de2e2 | 
[V:2] a8 | 
[V:3] e4e4 | 
[V:4] edcBc4 | 
[V:5] A,8 | 
[V:1] f3ed3c/B/ | 
[V:2] f4z4 | 
[V:3] d4d4- | 
[V:4] d4f4- | 
[V:5] z4z2D,2 | 
[V:1] A8 | 
[V:2] z8 | 
[V:3] d2c2c4 | 
[V:4] f4e4 | 
[V:5] F,3G,A,2A,2 | 
[V:1] z8 | 
[V:2] z8 | 
[V:3] d8 | 
[V:4] d3cB2A2 | 
[V:5] _B,3A,G,2F,E, | 
[V:1] z8 | 
[V:2] a8 | 
[V:3] z8 | 
[V:4] A4z2A2 | 
[V:5] D,2D,2F,3G, | 
[V:1] z2A2c3d | 
[V:2] a4a4 | 
[V:3] z8 | 
[V:4] c3de4- | 
[V:5] A,8 | 
[V:1] e2e2f4- | 
[V:2] a4a4- | 
[V:3] c8 | 
[V:4] e4z4 | 
[V:5] A,4F,4- | 
[V:1] f2ede4 | 
[V:2] a2g2g4 | 
[V:3] A2B2c3d | 
[V:4] z4z2e2 | 
[V:5] F,4C,4 | 
[V:1] z2A2A2c2- | 
[V:2] z2f2a4 | 
[V:3] B2A4A2 | 
[V:4] d4c4 | 
[V:5] z2D,2F,4 | 
[V:1] c2BAG4 | 
[V:2] g3fe4 | 
[V:3] c6BA | 
[V:4] z2e4dc | 
[V:5] C,4z2E,2 | 
[V:1] z2B2B2d2- | 
[V:2] z2e2g4 | 
[V:3] G4z2B2 | 
[V:4] B3AG4 | 
[V:5] E,2G,4F,E, | 
[V:1] d2cBA4 | 
[V:2] f4z2a2- | 
[V:3] B2d4c2 | 
[V:4] z2A2A2A2 | 
[V:5] D,3E,F,G,A,2- | 
[V:1] e4e2e2- | 
[V:2] agefg2e2- | 
[V:3] A2c2B2c2- | 
[V:4] c3de4- | 
[V:5] A,2A,2G,2A,2- | 
[V:1] e2e2edcB | 
[V:2] e2a3^g^g2 | 
[V:3] c2BAB4 | 
[V:4] e4e4- | 
[V:5] A,2G,F,E,4 | 
[V:1] c8 ||  
[V:2] a8 ||  
[V:3] A8 ||  
[V:4] e8 ||  
[V:5] A,,8 ||  
[V:1]  [K:C] [K:clef=treble][M:2/1]z8 | 
[V:2]  [K:C] [K:clef=treble-8][M:2/1]z8 | 
[V:3]  [K:C] [K:clef=treble-8][M:2/1]z8 | 
[V:4]  [K:C] [K:clef=treble-8][M:2/1]c4G2G2 | 
[V:5]  [K:C] [K:clef=bass][M:2/1]z8 | 
[V:1] z4e3e | 
[V:2] z8 | 
[V:3] z8 | 
[V:4] A2c3de2 | 
[V:5] z8 | 
[V:1] d2c2d4 | 
[V:2] z8 | 
[V:3] z8 | 
[V:4] f4f4 | 
[V:5] z8 | 
[V:1] e8 | 
[V:2] c4G2G2 | 
[V:3] z8 | 
[V:4] e8 | 
[V:5] z8 | 
[V:1] z8 | 
[V:2] A2c3ded/e/ | 
[V:3] z8 | 
[V:4] z8 | 
[V:5] C4G,2G,2 | 
[V:1] z8 | 
[V:2] f2e4d2 | 
[V:3] z8 | 
[V:4] z8 | 
[V:5] A,2E,2F,4 | 
[V:1] z4e4 | 
[V:2] e4g3a | 
[V:3] z8 | 
[V:4] z4e4 | 
[V:5] E,4E,4 | 
[V:1] d2c2d3c | 
[V:2] b2c'4b2 | 
[V:3] z8 | 
[V:4] B2e2d2B2 | 
[V:5] G,2A,2B,2G,2 | 
[V:1] A2c2B4 | 
[V:2] b2a4^g2 | 
[V:3] z8 | 
[V:4] e4e4 | 
[V:5] A,4E,4 | 
[V:1] A8 | 
[V:2] a8 | 
[V:3] c8- | 
[V:4] z2A2A2A2 | 
[V:5] A,8- | 
[V:1] z2A2A2A2 | 
[V:2] z8 | 
[V:3] c8- | 
[V:4] c3de4 | 
[V:5] A,8 | 
[V:1] c3de4 | 
[V:2] z8 | 
[V:3] c8- | 
[V:4] z2A2c3d | 
[V:5] z4A,4 | 
[V:1] z2A2c3d | 
[V:2] z8 | 
[V:3] c8 | 
[V:4] e4f4 | 
[V:5] A,4F,4 | 
[V:1] e2f2g4 | 
[V:2] z8 | 
[V:3] G8 | 
[V:4] g3fedc2 | 
[V:5] E,8 | 
[V:1] f4f2f2- | 
[V:2] a4a4 | 
[V:3] A8 | 
[V:4] d4d4 | 
[V:5] D,8- | 
[V:1] f2d4cB | 
[V:2] a8 | 
[V:3] A8- | 
[V:4] f4f4 | 
[V:5] D,8 | 
[V:1] c3defe2- | 
[V:2] a6gf | 
[V:3] A8 | 
[V:4] e6A2 | 
[V:5] z8 | 
[V:1] e2d4^c2 | 
[V:2] gfede4 | 
[V:3] e8 | 
[V:4] A8 | 
[V:5] z8 | 
[V:1] d8 | 
[V:2] d8 | 
[V:3] f8- | 
[V:4] z4A4 | 
[V:5] D,4D,2D,2 | 
[V:1] z2A2A2A2 | 
[V:2] a4f2f2 | 
[V:3] f8 | 
[V:4] A2A2c2c2 | 
[V:5] F,2F,2F,4 | 
[V:1] c2c2c4 | 
[V:2] g2e2g4 | 
[V:3] z8 | 
[V:4] c4G4- | 
[V:5] C,8 | 
[V:1] G4B3A | 
[V:2] e4f2g2- | 
[V:3] z8 | 
[V:4] G4d4 | 
[V:5] E,4D,2G,2- | 
[V:1] A2d4c2 | 
[V:2] g2a4a2 | 
[V:3] z8 | 
[V:4] d2f4e2 | 
[V:5] G,F,F,2D,2A,2- | 
[V:1] A2B4A2- | 
[V:2] f2g2e4 | 
[V:3] z8 | 
[V:4] d4c3A | 
[V:5] A,2G,2A,4 | 
[V:1] A2^G2A4 | 
[V:2] e4z4 | 
[V:3] z8 | 
[V:4] B4A4 | 
[V:5] E,4z4 | 
[V:1] z8 | 
[V:2] c4c2c2 | 
[V:3] e8- | 
[V:4] z8 | 
[V:5] A,4A,2A,2 | 
[V:1] z8 | 
[V:2] B2G2A2B2 | 
[V:3] e4d4 | 
[V:4] z8 | 
[V:5] G,2E,2F,2G,2 | 
[V:1] e4e2e2 | 
[V:2] c2BAG4 | 
[V:3] c8 | 
[V:4] G4c2c2 | 
[V:5] C,8 | 
[V:1] d2B2c2d2 | 
[V:2] z8 | 
[V:3] d8 | 
[V:4] B2G2A2B2 | 
[V:5] z8 | 
[V:1] G2e2e2e2 | 
[V:2] g8 | 
[V:3] e8 | 
[V:4] c4z4 | 
[V:5] C4C2C2 | 
[V:1] d2B2c2d2 | 
[V:2] g4f4 | 
[V:3] z8 | 
[V:4] z8 | 
[V:5] B,2G,2A,2B,2 | 
[V:1] e3dB2e2- | 
[V:2] e4g4 | 
[V:3] z8 | 
[V:4] B4B4 | 
[V:5] E,8 | 
[V:1] e2f2e2c2 | 
[V:2] a4e4 | 
[V:3] z8 | 
[V:4] c6A2 | 
[V:5] z2A,4A,2 | 
[V:1] d2c4B2 | 
[V:2] g4f2d2 | 
[V:3] z8 | 
[V:4] B2c2d4 | 
[V:5] G,2E,2F,2G,2 | 
[V:1] [M:3/1]c12 | 
[V:2] [M:3/1]g4e4e2f2 | 
[V:3] [M:3/1]e12 | 
[V:4] [M:3/1]c8z4 | 
[V:5] [M:3/1]z12 | 
[V:1] z4z4c4 | 
[V:2] g4c4c2d2 | 
[V:3] e6e6 | 
[V:4] c4c2d2e4 | 
[V:5] z12 | 
[V:1] c2d2e4A4 | 
[V:2] e4A4a4 | 
[V:3] e12 | 
[V:4] A12 | 
[V:5] z12 | 
[V:1] c8B4 | 
[V:2] g8f4 | 
[V:3] [M:3/1]e8d4 | 
[V:4] z12 | 
[V:5] z12 | 
[V:1] A4B6A2 | 
[V:2] e4f6e2 | 
[V:3] c4d8 | 
[V:4] z12 | 
[V:5] z12 | 
[V:1] [M:2/1]A8 | 
[V:2] [M:2/1]e8 | 
[V:3] [M:2/1]A8- | 
[V:4] [M:2/1]c4c2c2- | 
[V:5] [M:2/1]z8 | 
[V:1] z8 | 
[V:2] a4a2a2 | 
[V:3] A8 | 
[V:4] c2BAc2d2 | 
[V:5] F,4F,2F,2 | 
[V:1] z8 | 
[V:2] g2c4B2 | 
[V:3] z8 | 
[V:4] e8 | 
[V:5] E,2A,4G,2 | 
[V:1] z8 | 
[V:2] B2A4G2 | 
[V:3] z8 | 
[V:4] z2e2e2e2- | 
[V:5] A,2G,F,E,4 | 
[V:1] c4c2c2 | 
[V:2] A4z4 | 
[V:3] z8 | 
[V:4] e2dce2f2 | 
[V:5] z2A,4A,2 | 
[V:1] B2e4d2 | 
[V:2] z8 | 
[V:3] z8 | 
[V:4] g2e2f4 | 
[V:5] G,2C4B,2 | 
[V:1] e3dB2c2- | 
[V:2] z8 | 
[V:3] z8 | 
[V:4] e8 | 
[V:5] C2B,A,G,2A,2 | 
[V:1] c2B4G2 | 
[V:2] z8 | 
[V:3] e8 | 
[V:4] z8 | 
[V:5] E,8 | 
[V:1] A2E2F4 | 
[V:2] z8 | 
[V:3] d2c2d4 | 
[V:4] z8 | 
[V:5] z8 | 
[V:1] E8 | 
[V:2] z8 | 
[V:3] e8- | 
[V:4] B4B2c2- | 
[V:5] E,4E,2E,2 | 
[V:1] z4z2E2 | 
[V:2] z8 | 
[V:3] e8 | 
[V:4] c2BAB4 | 
[V:5] G,2A,4G,2 | 
[V:1] E2F2G2A2- | 
[V:2] z8 | 
[V:3] z8 | 
[V:4] A2A2G2F2 | 
[V:5] A,2C2B,2A,2 | 
[V:1] A2G2A2c2 | 
[V:2] e4c2A2 | 
[V:3] z4e4 | 
[V:4] E4z4 | 
[V:5] B,4A,4 | 
[V:1] B2A2d3c | 
[V:2] B2c2B4 | 
[V:3] d2c2d4 | 
[V:4] z8 | 
[V:5] z2A,2B,2G,2 | 
[V:1] B2A4^G2 | 
[V:2] e8 | 
[V:3] A2c2B4 | 
[V:4] z4B4 | 
[V:5] A,4E,4 | 
[V:1] A4z4 | 
[V:2] e8 | 
[V:3] A4z4 | 
[V:4] c4B4 | 
[V:5] z4E,4 | 
[V:1] z8 | 
[V:2] z4e4 | 
[V:3] z8 | 
[V:4] A2A2B2c2 | 
[V:5] F,4E,4 | 
[V:1] z4z2A2 | 
[V:2] f4e2d2- | 
[V:3] z8 | 
[V:4] d4z4 | 
[V:5] D,2D,2E,2F,2 | 
[V:1] B2c2d4 | 
[V:2] d2g2f3e | 
[V:3] z8 | 
[V:4] z4A4 | 
[V:5] G,3F,D,4 | 
[V:1] z4z2A2 | 
[V:2] d4z2a2 | 
[V:3] z8 | 
[V:4] B2A2c4 | 
[V:5] z2D,2E,2F,2 | 
[V:1] B2c2d2e2- | 
[V:2] g2a4a2- | 
[V:3] d4d2c2 | 
[V:4] B2A2A4 | 
[V:5] G,2F,2D,2A,2 | 
[V:1] e2d4c2 | 
[V:2] a2g2a4 | 
[V:3] d4e4 | 
[V:4] z8 | 
[V:5] B,2B,2A,4 | 
[V:1] d2A2B2B2 | 
[V:2] z2f2g2g2 | 
[V:3] d8 | 
[V:4] A4G2G2 | 
[V:5] D,4G,4 | 
[V:1] A2d3cBA | 
[V:2] f4a3g | 
[V:3] d4d2d2 | 
[V:4] A2B2A2d2- | 
[V:5] D,8 | 
[V:1] B2A4^G2 | 
[V:2] f2e2d4 | 
[V:3] d2d2d4 | 
[V:4] dcBAB4 | 
[V:5] z8 | 
[V:1] A8 | 
[V:2] e4z2a2- | 
[V:3] c8 | 
[V:4] A8 | 
[V:5] z4F,4- | 
[V:1] z8 | 
[V:2] a2a2g2g2 | 
[V:3] z4c4- | 
[V:4] z8 | 
[V:5] F,2F,2E,2E,2 | 
[V:1] z8 | 
[V:2] f4e4 | 
[V:3] c2c2B2B2 | 
[V:4] z8 | 
[V:5] F,4G,4 | 
[V:1] z8 | 
[V:2] g4f4 | 
[V:3] c4d4 | 
[V:4] z8 | 
[V:5] E,2E,2D,4 | 
[V:1] d4c2c2 | 
[V:2] d4a4 | 
[V:3] B2B2A4 | 
[V:4] z8 | 
[V:5] z8 | 
[V:1] B4A2A2 | 
[V:2] g2g2f4 | 
[V:3] z8 | 
[V:4] z4d4 | 
[V:5] z8 | 
[V:1] c4B4 | 
[V:2] e2e2g4 | 
[V:3] z8 | 
[V:4] c2c2G4 | 
[V:5] z8 | 
[V:1] A3Bcde2- | 
[V:2] f6e2- | 
[V:3] z8 | 
[V:4] d6A2 | 
[V:5] z8 | 
[V:1] e2dcd4 | 
[V:2] e2a4^g2 | 
[V:3] z8 | 
[V:4] c4B4 | 
[V:5] z8 | 
[V:1] c8 | 
[V:2] a8 | 
[V:3] z4c4 | 
[V:4] A8 | 
[V:5] F,4F,2F,2 | 
[V:1] z8 | 
[V:2] z8 | 
[V:3] c2c2B2c2 | 
[V:4] z8 | 
[V:5] E,2F,2G,2F,E, | 
[V:1] z8 | 
[V:2] z8 | 
[V:3] d2cBABcd | 
[V:4] z8 | 
[V:5] D,E,F,G,A,2G,2- | 
[V:1] z8 | 
[V:2] z4g4 | 
[V:3] e2d4^c2 | 
[V:4] z8 | 
[V:5] G,D,F,2E,4 | 
[V:1] z4d4 | 
[V:2] f2d2f2g2 | 
[V:3] d8 | 
[V:4] z8 | 
[V:5] D,4z4 | 
[V:1] c2A2c2d2 | 
[V:2] a6gf | 
[V:3] a2z2z4 | 
[V:4] z8 | 
[V:5] z8 | 
[V:1] e2dcB2e2- | 
[V:2] e4e4 | 
[V:3] z8 | 
[V:4] z8 | 
[V:5] z8 | 
[V:1] e2d2e2c2- | 
[V:2] f4e4 | 
[V:3] z8 | 
[V:4] z2d2c2A2 | 
[V:5] z8 | 
[V:1] c2BAG4 | 
[V:2] z8 | 
[V:3] z8 | 
[V:4] c2d2e4- | 
[V:5] F,4E,2C,2 | 
[V:1] z8 | 
[V:2] z8 | 
[V:3] z8 | 
[V:4] e2dcB2c2 | 
[V:5] E,2F,2G,2A,2 | 
[V:1] z8 | 
[V:2] z4a4 | 
[V:3] z8 | 
[V:4] B2e4d2 | 
[V:5] E,4F,4 | 
[V:1] e4d2B2 | 
[V:2] g2e2f2ed | 
[V:3] z8 | 
[V:4] e4z4 | 
[V:5] E,4z4 | 
[V:1] c2BAG2c2- | 
[V:2] c8 | 
[V:3] z8 | 
[V:4] z4e4 | 
[V:5] z8 | 
[V:1] c2B4A2 | 
[V:2] z8 | 
[V:3] z8 | 
[V:4] d2B2c4 | 
[V:5] z4A,4 | 
[V:1] B4z4 | 
[V:2] z4a4 | 
[V:3] z8 | 
[V:4] B2e4d2 | 
[V:5] G,2E,2F,3E, | 
[V:1] e4d2B2 | 
[V:2] g2e2f2ed | 
[V:3] z8 | 
[V:4] e4z4 | 
[V:5] C,4z4 | 
[V:1] c2BAG2c2- | 
[V:2] c4z2g2 | 
[V:3] z8 | 
[V:4] e8 | 
[V:5] z8 | 
[V:1] c2B4A2 | 
[V:2] f2d2e2f2 | 
[V:3] z8 | 
[V:4] d2B2c4 | 
[V:5] z4A,4 | 
[V:1] B2G2A2F2 | 
[V:2] g4z4 | 
[V:3] z8 | 
[V:4] B2c4d2 | 
[V:5] G,2E,2F,3E, | 
[V:1] GABA/B/c2B2- | 
[V:2] g4e2e2- | 
[V:3] z8 | 
[V:4] e6dc | 
[V:5] C,2G,2A,2E,2 | 
[V:1] B2A4^G2 | 
[V:2] e2d2e4 | 
[V:3] z8 | 
[V:4] dcBAB4 | 
[V:5] F,4E,4 | 
[V:1] A8 | 
[V:2] e8 | 
[V:3] c8- | 
[V:4] A8 | 
[V:5] z4A,4 | 
[V:1] z4e4 | 
[V:2] z4a4 | 
[V:3] c8 | 
[V:4] z8 | 
[V:5] A,8 | 
[V:1] f4e4- | 
[V:2] a8 | 
[V:3] c8 | 
[V:4] z4e4 | 
[V:5] A,8 | 
[V:1] e2c2B4 | 
[V:2] g4e4 | 
[V:3] B8 | 
[V:4] e8 | 
[V:5] E,4G,4 | 
[V:1] A4c4- | 
[V:2] f8 | 
[V:3] c8- | 
[V:4] A8 | 
[V:5] F,8 | 
[V:1] c2A2G4- | 
[V:2] e8 | 
[V:3] c8 | 
[V:4] G8 | 
[V:5] C,8 | 
[V:1] G4d4- | 
[V:2] z4g4- | 
[V:3] d8 | 
[V:4] G4B4- | 
[V:5] G,8- | 
[V:1] d2G2c4- | 
[V:2] g4a4 | 
[V:3] d8- | 
[V:4] B2A2A4 | 
[V:5] G,4F,4 | 
[V:1] c2B2B4 | 
[V:2] g8 | 
[V:3] d8 | 
[V:4] B4G4 | 
[V:5] G,8 | 
[V:1] c8 | 
[V:2] e6f2 | 
[V:3] c8- | 
[V:4] g6f2 | 
[V:5] C,4C4- | 
[V:1] z4c4 | 
[V:2] g4a4 | 
[V:3] c8 | 
[V:4] e2d2c4 | 
[V:5] C2B,2A,4 | 
[V:1] d4B4 | 
[V:2] d4g4- | 
[V:3] B8 | 
[V:4] z4d4 | 
[V:5] G,8 | 
[V:1] c4A4 | 
[V:2] g2fgf4 | 
[V:3] A4c4 | 
[V:4] c8 | 
[V:5] A,8 | 
[V:1] B4G4 | 
[V:2] g8 | 
[V:3] d4B4 | 
[V:4] B4d4 | 
[V:5] G,8 | 
[V:1] A4c4 | 
[V:2] z8 | 
[V:3] c4A4 | 
[V:4] e2c4BA | 
[V:5] z4F,4 | 
[V:1] B4e4 | 
[V:2] g8 | 
[V:3] B4G4 | 
[V:4] G8 | 
[V:5] G,4E,4 | 
[V:1] d2c2dcBA | 
[V:2] f8 | 
[V:3] A8 | 
[V:4] z4d4 | 
[V:5] F,4D,4 | 
[V:1] G4c4 | 
[V:2] g4e4 | 
[V:3] e8 | 
[V:4] B4c4 | 
[V:5] E,4C,4 | 
[V:1] B2A2A4- | 
[V:2] f4d4 | 
[V:3] d3cA4 | 
[V:4] F4z2F2 | 
[V:5] D,4F,4 | 
[V:1] A4^G4 | 
[V:2] e6de | 
[V:3] B8 | 
[V:4] G2A2B4 | 
[V:5] E,8 | 
[V:1] A4c4 | 
[V:2] f2e2a4- | 
[V:3] c4A4 | 
[V:4] A4e4 | 
[V:5] A,,8 & A,8 | 
[V:1] B2e4dc | 
[V:2] a2gfg2e2 | 
[V:3] B8- | 
[V:4] e8- | 
[V:5] E,8- | 
[V:1] !fermata!B8 | 
[V:2] !fermata!g8 | 
[V:3] !fermata!B8 | 
[V:4] !fermata!e8 | 
[V:5] !fermata!E,8 | 
[V:1] c8 |]  
[V:2] a8 |]  
[V:3] A8 |]  
[V:4] e8 |]  
[V:5] A,,8 |]  



